X: 1
T: String Quartet in G Major opus 76 no 1 mvt 1
C: Franz Joseph Haydn
%%abc-version 2.0
%%abcx-abcm2ps-target-version 5.9.1 (29 Sep 2008)
%%abc-creator hum2abc beta
%%abcx-conversion-date 2021/02/14 14:38:23
%%abc-copyright Copyright (c) 1994, 2000 Center for Computer Assisted Research in the Humanities
%%abc-edited-by Frances Bennion
%%abcx-initial-encoding-date 1997/04/15
%%gracespace 0 6 6
%%humdrum-veritas 3517005646
%%humdrum-veritas-data 42920325
%%linebreak <none>
%%barnumbers 0
L: 1/8
M: 2/2
N: Derived from op76n1-01.krn
Q: "Allegro con spirito"
%%staves [1 2 3 4]
V: 1
V: 2
V: 3 clef=alto
V: 4 clef=bass
K: G
[V:1][g2B2D2] z2 [a2d2D2] z2 [I:setbarnb2] |
[V:2][g2B2D2] z2 [f2D2A2] z2 |
[V:3][D2B2] z2 [D2c2] z2 |
[V:4]G,2 z2 D,2 z2 |
[V:1][d2b2D2] z2 z2 z2 |
[V:2][g2B2D2] z2 z2 z2 |
[V:3][D2B2] z2 z2 z2 |
[V:4]G,,2 z4 D2 |
[V:1]z8 |
[V:2]z8 |
[V:3]z8 |
[V:4]B,2 G,2 C2 A,2 |
[V:1]z8 |
[V:2]z8 |
[V:3]z8 |
[V:4]F,2 A,F, D,2 E,F, |
[V:1]z8 |
[V:2]z8 |
[V:3]z8 |
[V:4]G,2 E,2 B,,2 ^C,2 |
[V:1]z8 |
[V:2]z8 |
[V:3]z6 E2 |
[V:4]D,4 D2 z2 |
[V:1]z8 |
[V:2]z8 |
[V:3]C2 A,2 D2 B,2 |
[V:4]z8 |
[V:1]z8 |
[V:2]z8 |
[V:3]^G,2 B,G, E,2 F,G, |
[V:4]z8 |
[V:1]z8 |
[V:2]z8 |
[V:3]A,2 C2 D,2 F,2 |
[V:4]z8 |
[V:1]z8 |
[V:2]z6 d2 |
[V:3]G,4 G2 z2 |
[V:4]z6 F,2 |
[V:1]z8 |
[V:2]B2 G2 c2 A2 |
[V:3]z8 |
[V:4]G,2 B,2 A,2 C2 |
[V:1]z8 |
[V:2]F2 AF D2 EF |
[V:3]z8 |
[V:4]D6 C2 |
[V:1]z8 |
[V:2]G2 E2 B,2 ^C2 |
[V:3]z8 |
[V:4]B,2 G,4 A,G, |
[V:1]z6 e2 |
[V:2]D4 d2 z2 |
[V:3]z6 ^G,2 |
[V:4]F,G, F,E, D,2 z2 |
[V:1]c2 A2 d2 B2 |
[V:2]z8 |
[V:3]A,2 C2 B,2 D2 |
[V:4]z8 |
[V:1]^G2 BG E2 FG |
[V:2]z8 |
[V:3]E6 D2 |
[V:4]z8 |
[V:1]A2 c2 D2 F2 |
[V:2]z8 |
[V:3]C2 A,2 D2 C2 |
[V:4]z8 |
[V:1]G4 G,2 g2 |
[V:2]z6 B2 |
[V:3]B,C B,A, G,2 D2 |
[V:4]z6 G,,2 |
[V:1]e2 g2 c2 e2 |
[V:2]c2 e2 A2 c2 |
[V:3]E4 F4 |
[V:4]G,8- |
[V:1]d2 Bc d2 g2 |
[V:2]B2 GA B2 B2 |
[V:3]G2 DC B,2 D2 |
[V:4]G,6 G,,2 |
[V:1]e2 g2 c2 e2 |
[V:2]c2 e2 A2 c2 |
[V:3]E4 F4 |
[V:4]G,8- |
[V:1]d2 Bc d2 b2 |
[V:2]B2 GA B2 d2 |
[V:3]G2 DC B,2 G,2 |
[V:4]G,8 |
[V:1]^g2 a2 f2 =g2 |
[V:2]B2 c2 A2 B2 |
[V:3]=F2 E2 _E2 D2 |
[V:4][G,,8-G,8] |
[V:1]ef ge d2 b2 |
[V:2]c2 EF G2 d2 |
[V:3]CD EC B,2 G,2 |
[V:4][G,,8G,8-] |
[V:1]^g2 a2 f2 =g2 |
[V:2]B2 c2 A2 B2 |
[V:3]=F2 E2 _E2 D2 |
[V:4][G,,8G,8] |
[V:1]e2 e2 e2 a2 |
[V:2]G2 G2 G2 z2 |
[V:3]E2 E2 E2 z2 |
[V:4]C2 C2 C2 z2 |
[V:1]f2 f2 f2 ef |
[V:2]c2 c2 c2 z2 |
[V:3][A2D2] [A2D2] [A2D2] z2 |
[V:4]D,2 D,2 D,2 z2 |
[V:1]g2 g2 gb d'b |
[V:2]B2 B2 B2 z2 |
[V:3][B2D2] [B2D2] [B2D2] z2 |
[V:4]G,,2 G,,2 G,,2 z2 |
[V:1]g2 g2 g2 bg |
[V:2]d2 d2 d2 z2 |
[V:3]B,2 G2 G2 z2 |
[V:4]B,,2 B,,2 B,,2 z2 |
[V:1]e2 e2 e2 c'a |
[V:2]G2 G2 G2 z2 |
[V:3]c2 c2 c2 z2 |
[V:4]C,2 C,2 C,2 z2 |
[V:1]f2 f2 fa fd |
[V:2]c2 c2 c2 c2 |
[V:3]A2 A2 A2 A2 |
[V:4]D,2 D,2 D,2 D,2 |
[V:1]g4 G2 b2 |
[V:2]B4 G2 B2 |
[V:3]G4 G,2 B2 |
[V:4]G,,4 G,2 B,2 |
[V:1]g2 e2 a2 f2 |
[V:2]G2 E2 A2 F2 |
[V:3]G2 E2 A2 F2 |
[V:4]G,2 E,2 A,2 F,2 |
[V:1]^d2 fd B2 b2 |
[V:2]^D2 FD B,2 F2 |
[V:3]^D2 FD B,2 D2 |
[V:4]^D,2 F,D, B,,2 z2 |
[V:1]ga gf e2 a2 |
[V:2]G2 A2 B2 E2 |
[V:3]E2 F2 G2 ^C2 |
[V:4]z8 |
[V:1]fg fe d2 d'2 |
[V:2]F2 G2 A2 d2 |
[V:3]D2 E2 F2 A,2 |
[V:4]z6 F,2 |
[V:1]d'2 d'2 d'2 d'2 |
[V:2]f2 e2 g2 f2 |
[V:3]C2 B,2 D2 C2 |
[V:4]A,2 G,2 B,2 A,2 |
[V:1]d'a fd d'2 d'2 |
[V:2]a4 f2 f2 |
[V:3][D,4A,4] A2 A2 |
[V:4]C4 C2 C2 |
[V:1]d'b gd d'2 d'2 |
[V:2]g4 G2 g2 |
[V:3]G4 D2 D2 |
[V:4]B,4 B,2 B,2 |
[V:1]d'_b gd d'2 d'2 |
[V:2]g4 G2 g2 |
[V:3]G4 D2 D2 |
[V:4]_B,4 B,2 B,2 |
[V:1]d'^c' d'e' =f'e' f'd' |
[V:2]^g8 |
[V:3]=F4 D4 |
[V:4]_B,,8 |
[V:1]^c'e' c'a A2 b2 |
[V:2]a4 z2 F2 |
[V:3]E4 z2 ^D2 |
[V:4]A,,8- |
[V:1]g2 e2 a2 ge |
[V:2]G4 E4 |
[V:3]E4 ^C4 |
[V:4]A,,8- |
[V:1]d2 f2 e2 ^cA |
[V:2]F2 d2 ^c2 z2 |
[V:3]D2 ^G2 A2 z2 |
[V:4]A,,8- |
[V:1]e2 g2 f2 dA |
[V:2]^c4 d4 |
[V:3]G2 E2 F4 |
[V:4]A,,8- |
[V:1]f2 af g2 b2 |
[V:2]c4 B2 F2 |
[V:3]^D4 E2 =D2 |
[V:4]A,,8- |
[V:1]ba e'd' ^c'b ag |
[V:2]E8 |
[V:3]^C8 |
[V:4]A,,8 |
[V:1]f2 z6 |
[V:2]Fd fe d^c BA |
[V:3]D2 d^c BA GF |
[V:4]D,4 z4 |
[V:1]a^c' e'd' c'b ag |
[V:2]G6 E2 |
[V:3]E6 ^C2 |
[V:4]A,,8 |
[V:1]fa df Fd AF |
[V:2]F2 z2 A2 z2 |
[V:3]D2 z2 D2 z2 |
[V:4]D,2 z2 F,2 z2 |
[V:1]EB GE ^Dc AF |
[V:2]G2 z2 F2 z2 |
[V:3]B,2 z2 C2 z2 |
[V:4]G,2 z2 A,2 z2 |
[V:1]EB GE ^Dc AF |
[V:2]G2 z2 ^D2 z2 |
[V:3]B,2 z2 C2 z2 |
[V:4]G,2 z2 A,2 z2 |
[V:1]EG Be gb ge |
[V:2]E2 z6 |
[V:3]B,2 z6 |
[V:4]G,2 z6 |
[V:1]^c_b ge da =fd |
[V:2]_B2 z2 A2 z2 |
[V:3]E2 z2 =F2 z2 |
[V:4]G,2 z2 =F,2 z2 |
[V:1]^c_b ge dd' a=f |
[V:2]_B2 z2 A2 z2 |
[V:3]E2 z2 =F2 z2 |
[V:4]G,2 z2 =F,2 z2 |
[V:1]dd' a=f dd' af |
[V:2]Dd A=F Dd AF |
[V:3]Dd A=F Dd AF |
[V:4]D,D A,=F, D,D A,F, |
[V:1]dd' _bg dd' bg |
[V:2]Dd _BG Dd BG |
[V:3]Dd _BG Dd BG |
[V:4]D,D _B,G, D,D B,G, |
[V:1]dd' a=f dd' af |
[V:2]Dd A=F Dd AF |
[V:3]Dd A=F Dd AF |
[V:4]D,D A,=F, D,D A,F, |
[V:1]d_b d'b =fd _Bd |
[V:2]D_B dB =FD _B,D |
[V:3]D_B dB =FD _B,D |
[V:4]D,_B, DB, =F,D, _B,,D, |
[V:1]=f_b d'b fd _Bd |
[V:2]=F_B dB FD _B,D |
[V:3]=F_B dB FD _B,D |
[V:4]=F,_B, DB, F,D, _B,,D, |
[V:1]_Bd =fd B=F BF |
[V:2]_B,D =FD B,F B,F |
[V:3]_B,D =FD B,=F, B,F, |
[V:4]_B,,D, =F,D, B,,=F,, B,,F,, |
[V:1]_Bd =fd B=F BF |
[V:2]_B,D =FD B,F B,F |
[V:3]_B,D =FD B,=F, B,F, |
[V:4]_B,,D, =F,D, B,,=F,, B,,F,, |
[V:1]_B=F BF BF BA |
[V:2]_B,=F B,F B,2 F2 |
[V:3]_B,=F, B,F, B,2 B,2 |
[V:4]_B,,=F,, B,,F,, B,,F,, B,,C, |
[V:1]^G8- |
[V:2]=F8- |
[V:3]_B,8- |
[V:4]D,8- |
[V:1]G2 ^G2 G2 G2 |
[V:2]F2 =F2 F2 F2 |
[V:3]B,2 _B,2 B,2 B,2 |
[V:4]D,2 D,2 D,2 D,2 |
[V:1]^G8- |
[V:2]=F8- |
[V:3]_B,8- |
[V:4]D,8- |
[V:1]G2 ^G2 G2 G2 |
[V:2]F2 =F2 F2 F2 |
[V:3]B,2 _B,2 B,2 B,2 |
[V:4]D,2 D,2 D,2 D,2 |
[V:1]G8- |
[V:2]E8- |
[V:3]_B,8 |
[V:4]^C,8- |
[V:1]G2 G2 G2 G2 |
[V:2]E2 E2 E2 E2 |
[V:3]A,2 A,2 A,2 A,2 |
[V:4]C,2 ^C,2 C,2 C,2 |
[V:1]F4 EF GE |
[V:2]D4 B,4 |
[V:3]A,4 B,4 |
[V:4]D,4 G,,4 |
[V:1]D4 ^CD EC |
[V:2]A,4 E4 |
[V:3]F,4 G,2 GE |
[V:4]A,,8 |
[V:1]D4 z2 af |
[V:2]FA, FA, FA, FA, |
[V:3]DA, DA, DA, DA, |
[V:4]D,2 z6 |
[V:1]e2 eg b2 ba |
[V:2]GA, GA, GA, GA, |
[V:3]^CA, CA, CA, CA, |
[V:4]D,2 z6 |
[V:1]a4 d'2 af |
[V:2]FA, FA, FA, FA, |
[V:3]DA, DA, DA, DA, |
[V:4]D,2 z6 |
[V:1]e2 ef gf ge |
[V:2]GA, GA, GA, GA, |
[V:3]^CA, CA, CA, CA, |
[V:4]D,2 z6 |
[V:1]d4 A2 af |
[V:2]FA, FA, FA, FA, |
[V:3]DA, DA, DA, DA, |
[V:4]D,2 z6 |
[V:1]e2 eg b2 ba |
[V:2]GA, GA, GA, GA, |
[V:3]^CA, CA, CA, CA, |
[V:4]D,,2 z6 |
[V:1]a4 d'2 af |
[V:2]FA, FA, FA, FA, |
[V:3]DA, DA, DA, DA, |
[V:4]D,,2 z6 |
[V:1]e2 ef gf ge |
[V:2]GA, GA, GA, GA, |
[V:3]^CA, CA, CA, CA, |
[V:4]D,,2 z6 |
[V:1]dD FA dD FA |
[V:2]F2 z4 F2 |
[V:3]D2 z4 C2 |
[V:4]D,,2 z4 A,2 |
[V:1]c2 B2 _B2 A2 |
[V:2]^D2 E2 ^C2 =D2- |
[V:3]A,2 B,2 G,2 A,2 |
[V:4]F,2 G,2 E,2 F,2 |
[V:1]A2 G2 F2 E2 |
[V:2]D2 E2 D2 ^C2 |
[V:3]B,4 A,2 G,2 |
[V:4]G,4 A,4 |
[V:1]Dd fa d'd fa |
[V:2]D2 z4 f2 |
[V:3]F,2 z4 c2 |
[V:4]D,2 z4 A2 |
[V:1]c'2 b2 _b2 a2 |
[V:2]^d2 e2 ^c2 =d2- |
[V:3]A2 B2 G2 A2 |
[V:4]F2 G2 E2 F2 |
[V:1]a2 g2 f2 e2 |
[V:2]d2 e2 d2 ^c2 |
[V:3]B4 A2 G2 |
[V:4]G4 A4 |
[V:1]dA FD e2 z2 |
[V:2]d2 z2 AE ^CA, |
[V:3]F2 z2 ^C2 z2 |
[V:4]D,2 z6 |
[V:1]f2 z2 ^c'2 z2 |
[V:2]D2 z2 [e2A2] z2 |
[V:3]DA, F,D, G2 z2 |
[V:4]z4 A,E, ^C,A,, |
[V:1]d'2 z2 z2 z2 |
[V:2][f2A2] z2 z2 z2 |
[V:3]F2 z4 A2 |
[V:4]D,,2 z2 z2 z2 |
[V:1]z8 |
[V:2]z2 d'^c' ba gf |
[V:3]F2 D2 G2 E2 |
[V:4]D2 z2 G,2 z2 |
[V:1]z8 |
[V:2]e2 fg ab ag |
[V:3]^C2 EC A,2 B,C |
[V:4]A,4 z4 |
[V:1]z8 |
[V:2]fe d^c df ed |
[V:3]D2 B,2 F,2 ^G,2 |
[V:4]z8 |
[V:1]z8 |
[V:2]^cd ec A2 B2 |
[V:3]A,4 A2 z2 |
[V:4]z8 |
[V:1]z2 e'd' c'b ag |
[V:2]G2 E2 A2 F2 |
[V:3]E2 z2 A,2 z2 |
[V:4]z8 |
[V:1]f2 ga ba gf |
[V:2]^D2 FD B,2 ^CD |
[V:3]B,4 z4 |
[V:4]z8 |
[V:1]gf e^d eg fa |
[V:2]E2 F2 G2 ^D2 |
[V:3]z8 |
[V:4]z8 |
[V:1]ge bg eB eB |
[V:2]E4 z4 |
[V:3]B,4 z4 |
[V:4]E,4 z4 |
[V:1]eg bg eB eB |
[V:2]G4 z4 |
[V:3]B,4 z4 |
[V:4]E,4 z4 |
[V:1]b4 z4 |
[V:2]^DF BF DB, DB, |
[V:3][F4B,4] z4 |
[V:4]B,,4 z4 |
[V:1][a4B4] z4 |
[V:2]^DF BF DB, DB, |
[V:3][F4B,4] z4 |
[V:4]B,,4 z4 |
[V:1]ge bg eB eB |
[V:2]G4 z4 |
[V:3]E4 z4 |
[V:4]E,4 z4 |
[V:1]eg bg eB eB |
[V:2]B4 z4 |
[V:3]G4 z4 |
[V:4]E,4 z4 |
[V:1]eg c'g ec ec |
[V:2]c8- |
[V:3]G8 |
[V:4]A,,2 A,2 A,2 A,2 |
[V:1]fa c'a fc fc |
[V:2][c8A8] |
[V:3]F8- |
[V:4]D,2 D2 D2 D2 |
[V:1]Bf bf dB dB |
[V:2]B8- |
[V:3]F8 |
[V:4]G,,2 G,2 G,2 G,2 |
[V:1]eg bg eB eB |
[V:2][B8G8] |
[V:3]E8- |
[V:4]C,2 C2 C2 C2 |
[V:1]ce ae cA cA |
[V:2]A8- |
[V:3]E8 |
[V:4]F,,2 F,2 F,2 F,2 |
[V:1]Bf af ^dB dB |
[V:2][A8F8] |
[V:3]^D8 |
[V:4]B,,2 B,2 B,2 B,2 |
[V:1]eg bg eB GB |
[V:2]G2 B2 B2 B2 |
[V:3]B,2 E2 E2 E2 |
[V:4]E,,2 E,2 E,2 E,2 |
[V:1]Ee BG Ee BG |
[V:2]B,2 B2 B2 B2 |
[V:3]G,2 G2 G2 G2 |
[V:4]E,,2 E,2 E,2 E,2 |
[V:1]Ee cA Ee cA |
[V:2]C2 c2 c2 c2 |
[V:3]A,2 A2 A2 A2 |
[V:4]E,,2 E,2 E,2 E,2 |
[V:1]Ee BG Ee BG |
[V:2]B,2 B2 B2 B2 |
[V:3]G,2 G2 G2 G2 |
[V:4]E,,2 E,2 E,2 E,2 |
[V:1]Ee B^G Ee BG |
[V:2]B,2 B2 B2 B2 |
[V:3]^G,2 ^G2 G2 G2 |
[V:4]D,,2 D,2 D,2 D,2 |
[V:1]Ee cA Ee cA |
[V:2]A,2 A2 A2 A2 |
[V:3]A,2 E2 E2 E2 |
[V:4]C,,2 C,2 C,2 C,2 |
[V:1]Ee dB Ee dB |
[V:2]D2 d2 d2 d2 |
[V:3]B,2 B2 B2 B2 |
[V:4]^G,,2 ^G,2 G,2 G,2 |
[V:1]Aa ec Aa e^c |
[V:2]c2 z2 [^c2E2] z2 |
[V:3]A2 z2 [A2A,2] z2 |
[V:4]A,2 z2 G,2 z2 |
[V:1]Aa =fd Aa ge |
[V:2][d2D2] z2 [A2e2] z2 |
[V:3][A2A,2] z2 [A,2G2] z2 |
[V:4]=F,2 z2 ^C,2 z2 |
[V:1]Aa =fd Gg fd |
[V:2][=f2A2] z2 [B2D2] z2 |
[V:3][=F2A,2] z2 D2 z2 |
[V:4]D,2 z2 =F,2 z2 |
[V:1]Gg ec G2 g2 |
[V:2][E2c2] z2 [=F2d2] z2 |
[V:3]G2 z2 G2 z2 |
[V:4]E,2 z2 B,,2 z2 |
[V:1]e2 c2 =f2 d2 |
[V:2]G2 cB AG =FE |
[V:3]G2 ED CB, A,G, |
[V:4]C,4 =F,,4 |
[V:1]B2 dB G2 AB |
[V:2]D4 B,2 CD |
[V:3]=F,2 z4 =F2 |
[V:4]G,,4 G,2 =F,2 |
[V:1]c2 d2 e2 d2 |
[V:2]E2 =F2 G2 ^G2 |
[V:3]E2 B2 c2 D2 |
[V:4]E,2 D,2 C,2 _B,,2 |
[V:1]^c2 ec A2 Bc |
[V:2]A4 ^C2 DE |
[V:3]E4 z2 G2 |
[V:4]A,,4 A,2 G,2 |
[V:1]d2 e2 =f2 e2 |
[V:2]=F2 G2 A2 ^A2 |
[V:3]=F2 ^c2 d2 E2 |
[V:4]=F,2 E,2 D,2 C,2 |
[V:1]^d2 fd B2 b2 |
[V:2]B4 z4 |
[V:3]F4 z4 |
[V:4]B,,8 |
[V:1]g2 e2 a2 f2 |
[V:2]zE FG FG AB |
[V:3]z8 |
[V:4]E,4 z4 |
[V:1]^d2 fd B2 ^cd |
[V:2]c2 B4 F2 |
[V:3]z2 ^D2 F2 AF |
[V:4]z6 B,2 |
[V:1]e2 g2 fg ab |
[V:2]G4 z2 fg |
[V:3]B2 G2 c2 A2 |
[V:4]G,2 E,2 A,2 F,2 |
[V:1]c'6 ba |
[V:2]a6 gf |
[V:3]F2 AF ^D2 EF |
[V:4]^D,2 F,D, B,,2 ^C,D, |
[V:1]gf ga b2 b2 |
[V:2]e^d ef g2 f2 |
[V:3]B,6 ^CD |
[V:4]E,6 D,2 |
[V:1]ba e'd' ^c'b ag |
[V:2]e8 |
[V:3]E2 ^C2 A,2 A2- |
[V:4]^C,8 |
[V:1]f2 af d2 d'2 |
[V:2]f2 z4 A2 |
[V:3]A2 FA d2 F2 |
[V:4]D,6 D,2 |
[V:1]b2 d'2 g2 b2 |
[V:2]B4 ^c4 |
[V:3]G2 B2 E2 G2 |
[V:4]D8- |
[V:1]a2 fg a2 d'2 |
[V:2]d6 A2 |
[V:3]F6 F2 |
[V:4]D6 D,2 |
[V:1]b2 d'2 g2 b2 |
[V:2]B4 ^c4 |
[V:3]G2 B2 E2 G2 |
[V:4]D8- |
[V:1]a2 fg a2 b2 |
[V:2]d8- |
[V:3]F2 DE F2 G2 |
[V:4]D6 D,,2 |
[V:1]c'2 ab c'2 d'2 |
[V:2]d2 cB A2 G2 |
[V:3]A2 FG A2 B2 |
[V:4]D,8- |
[V:1]e'6 c'2 |
[V:2][A,8-F8] |
[V:3]c8- |
[V:4]D,8- |
[V:1]a2 f2 c2 A2 |
[V:2][A,8F8-] |
[V:3]c8- |
[V:4]D,8- |
[V:1]F2 D2 C2 z2 |
[V:2][A,4F4] z4 |
[V:3]c4 z4 |
[V:4]D,4 z2 D2 |
[V:1]z2 gf ed cB |
[V:2]z8 |
[V:3]z8 |
[V:4]B,2 G,2 C2 A,2 |
[V:1]A2 Bc de dc |
[V:2]z8 |
[V:3]z8 |
[V:4]F,2 A,F, D,2 E,F, |
[V:1]BA GF GB AG |
[V:2]z8 |
[V:3]z8 |
[V:4]G,2 E,2 B,,2 ^C,2 |
[V:1]FG AF D2 d2 |
[V:2]z8 |
[V:3]z8 |
[V:4]D,4 D2 z2 |
[V:1]B2 G2 e2 c2 |
[V:2]z2 D2 B,2 G,2 |
[V:3]z2 B,2 G,2 E,2 |
[V:4]z8 |
[V:1]A2 f2 d2 B2 |
[V:2]E2 C2 A,2 F2 |
[V:3]C2 A,2 F,2 D2 |
[V:4]z8 |
[V:1]gf ed c2 a2 |
[V:2]D2 B,2 GF ED |
[V:3]B,2 G,2 ED CB, |
[V:4]z8 |
[V:1]f2 d2 ba gf |
[V:2]C2 A2 F2 D2 |
[V:3]A,2 F2 D2 B,2 |
[V:4]z8 |
[V:1]e2 c'b a2 d'c' |
[V:2]B2 e2 a2 f2 |
[V:3]G2 z6 |
[V:4]z2 A,2 F,2 D,2 |
[V:1]b2 g2 e2 a2 |
[V:2]d2 ef g2 c2 |
[V:3]z8 |
[V:4]G,2 E,2 C,2 A,,2 |
[V:1]g4 f4 |
[V:2]B4 A4 |
[V:3]z6 dc |
[V:4]D,2 ^C,2 D,2 D,,2 |
[V:1]g6 g2 |
[V:2]B6 B2 |
[V:3]Bc BA G2 D2 |
[V:4]G,,2 B,,D, G,2 G,,2 |
[V:1]e2 g2 c2 e2 |
[V:2]c2 e2 A2 c2 |
[V:3]E4 F4 |
[V:4]G,8- |
[V:1]d2 Bc d2 g2 |
[V:2]B2 GA B2 B2 |
[V:3]G2 DC B,2 D2 |
[V:4]G,6 G,,2 |
[V:1]e2 g2 c2 e2 |
[V:2]c2 e2 A2 c2 |
[V:3]E4 F4 |
[V:4]G,8- |
[V:1]d2 Bc d2 b2 |
[V:2]B2 GA B2 d2 |
[V:3]G2 DC B,2 G,2 |
[V:4]G,8 |
[V:1]^g2 a2 f2 =g2 |
[V:2]B2 c2 A2 B2 |
[V:3]=F2 E2 _E2 D2 |
[V:4][G,,8-G,8] |
[V:1]ef ge d2 b2 |
[V:2]c2 EF G2 d2 |
[V:3]CD EC B,2 G,2 |
[V:4][G,,8G,8-] |
[V:1]^g2 a2 f2 =g2 |
[V:2]B2 c2 A2 B2 |
[V:3]=F2 E2 _E2 D2 |
[V:4][G,,8G,8] |
[V:1]e2 e2 e2 a2 |
[V:2]G2 G2 G2 z2 |
[V:3]E2 E2 E2 z2 |
[V:4]C2 C2 C2 z2 |
[V:1]f2 f2 f2 ef |
[V:2]c2 c2 c2 z2 |
[V:3][A2D2] [D2A2] [A2D2] z2 |
[V:4]D,2 D,2 D,2 z2 |
[V:1]g2 g2 gb d'b |
[V:2]B2 B2 B2 z2 |
[V:3][B2D2] [B2D2] [B2D2] z2 |
[V:4]G,,2 G,,2 G,,2 z2 |
[V:1]g2 g2 g2 bg |
[V:2]d2 d2 d2 z2 |
[V:3]B2 B2 B2 z2 |
[V:4]B,,2 B,,2 B,,2 z2 |
[V:1]e2 e2 e2 e'c' |
[V:2]G2 G2 G2 z2 |
[V:3]c2 c2 c2 z2 |
[V:4]C,2 C,2 C,2 z2 |
[V:1]a2 a2 a2 bg |
[V:2]E8 |
[V:3]C4 ^C4 |
[V:4]C,4 ^C,4 |
[V:1]f2 d'2 b2 ^g2 |
[V:2]D4 z2 e2 |
[V:3]D8- |
[V:4]D,4 z4 |
[V:1]e'2 c'2 a2 f2 |
[V:2]c2 A2 F2 d2 |
[V:3]D8- |
[V:4]z8 |
[V:1]d'2 b2 g2 e2 |
[V:2]B2 G2 E2 c2 |
[V:3]D8- |
[V:4]z8 |
[V:1]c'2 a2 f2 a2 |
[V:2]A2 F2 D2 F2 |
[V:3]D8- |
[V:4]z6 D,2 |
[V:1]g2 b2 a2 c'2 |
[V:2]G2 z4 A2 |
[V:3]D4 E2 C2 |
[V:4]B,,2 G,,2 C,2 A,,2 |
[V:1]e'6 d'c' |
[V:2]c6 BA |
[V:3]A,2 CA, F,2 G,A, |
[V:4]F,,2 A,,F,, D,,2 E,,F,, |
[V:1]bd' bg dB GB |
[V:2]G4 z4 |
[V:3]B,4 z4 |
[V:4]G,,4 z4 |
[V:1]AB cd ed ec |
[V:2]A4 z4 |
[V:3]D4 z4 |
[V:4]F,,4 z4 |
[V:1]Bd BG DG DB, |
[V:2]B4 z4 |
[V:3]D4 z4 |
[V:4]G,,4 z4 |
[V:1]A,E CA, ^G,=F DB, |
[V:2]C2 z2 B,2 z2 |
[V:3]E,2 z2 =F,2 z2 |
[V:4]C,2 z2 D,2 z2 |
[V:1]A,E CA, ^G,=F DB, |
[V:2]C2 z2 B,2 z2 |
[V:3]E,2 z2 =F,2 z2 |
[V:4]C,2 z2 D,2 z2 |
[V:1]A,C EA ce cA |
[V:2]C2 z6 |
[V:3]E,2 z6 |
[V:4]C,2 z6 |
[V:1]F_e cA Gd _BG |
[V:2]_E2 z2 D2 z2 |
[V:3]A,2 z2 _B,2 z2 |
[V:4]C,2 z2 _B,,2 z2 |
[V:1]F_e cA Gg d_B |
[V:2]_E2 z2 D2 z2 |
[V:3]A,2 z2 _B,2 z2 |
[V:4]C,2 z2 _B,,2 z2 |
[V:1]Gg d_B Gg dB |
[V:2]G,G D_B, G,G DB, |
[V:3]G,G D_B, G,G DB, |
[V:4]G,,G, D,_B,, G,,G, D,B,, |
[V:1]Gg _ec Gg ec |
[V:2]G,G _EC G,G EC |
[V:3]G,G _EC G,G EC |
[V:4]G,,G, _E,C, G,,G, E,C, |
[V:1]Gg d_B Gg dB |
[V:2]G,G D_B, G,G DB, |
[V:3]G,G D_B, G,B, DG |
[V:4]G,,G, D,_B,, G,,G, D,B,, |
[V:1]Gg _e_B GD _E=F |
[V:2]_E8 |
[V:3]_B,8 |
[V:4]G,,8- |
[V:1]G_B _eg _bg bg |
[V:2]G,_B, _EG _BG BG |
[V:3]G,_B, _EG _BG BG |
[V:4]G,,_B,, _E,G, _B,G, B,G, |
[V:1]_eg _bg e_B eB |
[V:2]_EG _BG E_B, EB, |
[V:3]_EG _BG E_B, EB, |
[V:4]_E,G, _B,G, E,_B,, E,B,, |
[V:1]_eg _bg e_B eB |
[V:2]_EG _BG E_B, EB, |
[V:3]_EG _BG E_B, EB, |
[V:4]_E,G, _B,G, E,_B,, E,B,, |
[V:1]_e_B eB eB ed |
[V:2]_E_B, EB, EB, _B2 |
[V:3]_E_B, EB, E2 E2 |
[V:4]_E,_B,, E,B,, E,B,, E,=F, |
[V:1]^c8- |
[V:2]_B8- |
[V:3]_E8- |
[V:4]G,8- |
[V:1]c2 ^c2 c2 c2 |
[V:2]B2 _B2 B2 B2 |
[V:3]E2 _E2 E2 E2 |
[V:4]G,2 G,2 G,2 G,2 |
[V:1]^c8- |
[V:2]_B8- |
[V:3]_E8- |
[V:4]G,8- |
[V:1]c2 ^c2 c2 c2 |
[V:2]B2 _B2 B2 B2 |
[V:3]E2 _E2 E2 E2 |
[V:4]G,2 G,2 G,2 G,2 |
[V:1]c8- |
[V:2]A8- |
[V:3]_E8 |
[V:4]F,8- |
[V:1]c2 c2 c2 c2 |
[V:2]A2 A2 A2 A2 |
[V:3]D2 D2 D2 D2 |
[V:4]F,2 F,2 F,2 F,2 |
[V:1]B4 AB cA |
[V:2]G4 E4 |
[V:3]D4 C4 |
[V:4]G,4 C,4 |
[V:1]G4 FG AF |
[V:2]D4 C4 |
[V:3]B,4 A,4 |
[V:4]D,8 |
[V:1]G4 z2 dB |
[V:2]B,D B,D B,D B,D |
[V:3]G,D, G,D, G,D, G,D, |
[V:4]G,,2 z6 |
[V:1]A2 Ac e2 ed |
[V:2]CD CD CD CD |
[V:3]F,D, F,D, F,D, F,D, |
[V:4]G,,2 z6 |
[V:1]d4 g2 dB |
[V:2]B,D B,D B,D B,D |
[V:3]G,D, G,D, G,D, G,D, |
[V:4]G,,2 z6 |
[V:1]A2 AB cB cA |
[V:2]CD CD CD CD |
[V:3]F,D, F,D, F,D, F,D, |
[V:4]G,,2 z6 |
[V:1]G4 D2 dB |
[V:2]B,D B,D B,D B,D |
[V:3]G,D, G,D, G,D, G,D, |
[V:4]G,,2 z6 |
[V:1]A2 Ac e2 ed |
[V:2]CD CD CD CD |
[V:3]F,D, F,D, F,D, F,D, |
[V:4]G,,2 z6 |
[V:1]d4 g2 ed |
[V:2]B,D B,D B,2 c2 |
[V:3]G,D, G,D, G,2 F2 |
[V:4]G,,2 z6 |
[V:1]d2 ed d2 ed |
[V:2]B2 c2 B2 c2 |
[V:3]G2 F2 G2 F2 |
[V:4]z8 |
[V:1]d4 g2 ed |
[V:2]B4 z2 c2 |
[V:3]G4 z2 F2 |
[V:4]z8 |
[V:1]d2 ed d2 =fe |
[V:2]B2 c2 B2 d2 |
[V:3]G2 F2 G2 ^G2 |
[V:4]z8 |
[V:1]e2 =fe e2 ^ga |
[V:2]c2 d2 c2 Bc |
[V:3]A2 ^G2 A2 =FE |
[V:4]z6 DC |
[V:1]a2 bc' c'2 fg |
[V:2]c2 de e2 AB |
[V:3]E2 DC C2 _ED |
[V:4]C2 B,A, A,2 CB, |
[V:1]g2 ab b2 d'b |
[V:2]B2 cd d2 B2 |
[V:3]D2 CB, B,2 G,G |
[V:4]B,2 A,G, G,2 z2 |
[V:1]a2 ac' e'2 e'd' |
[V:2]cD cD cD cD |
[V:3]FD FD FD FD |
[V:4]G,2 z6 |
[V:1]d'4 g'2 d'b |
[V:2]BD BD BD BD |
[V:3]GD GD GD GD |
[V:4]G,2 z6 |
[V:1]a2 ab c'b c'a |
[V:2]cD cD cD cD |
[V:3]FD FD FD FD |
[V:4]G,2 z6 |
[V:1]g4 d2 d'b |
[V:2]BD BD BD BD |
[V:3]GD GD GD GD |
[V:4]G,2 z6 |
[V:1]a2 ac' e'2 e'd' |
[V:2]cD cD cD cD |
[V:3]FD FD FD FD |
[V:4]G,,4 z4 |
[V:1]d'4 g'2 d'b |
[V:2]BD BD BD BD |
[V:3]GD GD GD GD |
[V:4]G,,4 z4 |
[V:1]a2 ab c'b c'a |
[V:2]cD cD cD cD |
[V:3]FD FD FD FD |
[V:4]G,,4 z4 |
[V:1]bg bd' g'g bd' |
[V:2]B2 z4 b2 |
[V:3]G2 z4 =F2 |
[V:4]G,,4 z2 D2 |
[V:1]=f'2 e'2 _e'2 d'2 |
[V:2]^g2 a2 f2 =g2- |
[V:3]D2 E2 C2 D2 |
[V:4]B,2 C2 A,2 B,2 |
[V:1]d'2 c'2 b2 a2 |
[V:2]g2 a2 g2 f2 |
[V:3]E4 D2 C2 |
[V:4]C4 D4 |
[V:1]gG Bd gG Bd |
[V:2]g2 z4 G2 |
[V:3]B,2 z4 =F2 |
[V:4]G,2 z4 D2 |
[V:1]=f2 e2 g2 ^f2 |
[V:2]^G2 A2 _B2 A2 |
[V:3]D2 E4 F2- |
[V:4]B,2 C2 ^C2 D2 |
[V:1]a2 g2 c'2 b2 |
[V:2]c2 B2 d2 d2 |
[V:3]F2 G2 A2 B2 |
[V:4]^D2 E2 F2 G2 |
[V:1]e'4 z4 |
[V:2]E4 z4 |
[V:3]A4 z4 |
[V:4]C4 z4 |
[V:1][f4A4] z4 |
[V:2]c4 z4 |
[V:3]D4 z4 |
[V:4]D4 z4 |
[V:1]gd BG a2 z2 |
[V:2]B2 z2 dA FD |
[V:3]G2 z2 F2 z2 |
[V:4]G,4 z4 |
[V:1]b2 z2 [d'2d2] z2 |
[V:2]G2 z2 [c2f2] z2 |
[V:3]GD B,G, D,2 z2 |
[V:4]z4 D,A,, F,,D,, |
[V:1][b2d2] z6 |]
[V:2][g2D2B2] z6 |]
[V:3]G,2 z6 |]
[V:4]G,,2 z6 |]

